!!!COA: Josquin des Prez
!!!CDT: ~1450-1521/08/27
!!!OTL: Cueurs desolez par toute nation / Plorans ploravit
!!!AGN: Chanson
!!!SCT: NJE 29.3
!!!SCA: New Josquin Edition 29.3
!!!voices: 5
**kern	**kern	**kern	**kern	**kern
*staff5	*staff4	*staff3	*staff2	*staff1
*Ivox	*Ivox	*Ivox	*Ivox	*Ivox
*I"Bassus	*I"Quintus	*I"Tenor	*I"Superius2	*I"Superius1
*I'B	*I'Q	*I'T	*I'S2	*I'S1
*clefF4	*clefF4	*clefGv2	*clefG2	*clefG2
*k[b-]	*k[b-]	*k[b-]	*k[b-]	*k[b-]
*M2/1	*M2/1	*M2/1	*M2/1	*M2/1
*met(C|)	*met(C|)	*met(C|)	*met(C|)	*met(C|)
=1-	=1-	=1-	=1-	=1-
0D	0r	[0A	0f	0dd
=2	=2	=2	=2	=2
1D	0r	0A]	1f	1dd
1D	.	.	1f	1dd
=3	=3	=3	=3	=3
0AA	0r	1A	1.e	0cc
.	.	1A	.	.
.	.	.	[2a/	.
=4	=4	=4	=4	=4
1r	0r	0c	2a/]	1r
.	.	.	4g/	.
.	.	.	4f/	.
1AA	.	.	2e/	1cc
.	.	.	2a/	.
=5	=5	=5	=5	=5
1.BB-	0r	1.B-	2.d/	1.dd
.	.	.	4e/	.
.	.	.	1f	.
2F\	.	2A/	.	2cc\
=6	=6	=6	=6	=6
2G\	0r	0G	2e-/	2b-\
2F\	.	.	2.d/	2a/
1E-	.	.	.	1g
.	.	.	4c/	.
.	.	.	2c/	.
=7	=7	=7	=7	=7
0D	[0F	1A	2.d/	2.f/
.	.	.	4e/	4g/
.	.	2r	2.f/	4a/
.	.	.	.	4b-\
.	.	[2A/	.	2a/
.	.	.	4g/	.
=8	=8	=8	=8	=8
1r	0F]	4A/]	1a	2.f/
.	.	4B-\	.	.
.	.	2c\	.	.
.	.	.	.	4g/
1D	.	2F/	2r	4a/
.	.	.	.	4b-\
.	.	2f\	2f/	[2a/
=9	=9	=9	=9	=9
2C/	1G	2e\	1cc	2a/]
2BB-/	.	2d\	.	1g
2AA/	1A	2d\	1cc	.
2AA/	.	2c\	.	2f#i/
=10	=10	=10	=10	=10
1GG	0B-	2d\	1b-	0g
.	.	2G/	.	.
2r	.	2d\	1g	.
2GG/	.	2e\	.	.
=11	=11	=11	=11	=11
1.D	[0A	1.f	1.a	2r
.	.	.	.	2d/
.	.	.	.	2f/
2E\	.	2e\	2g/	2g/
=12	=12	=12	=12	=12
1F	0A]	1c	1f	1.a
1D	.	1d	1f	.
.	.	.	.	2f/
=13	=13	=13	=13	=13
1E	1.G	1B-	0e	1g
2r	.	1c	.	1cc
2C/	2A\	.	.	.
=14	=14	=14	=14	=14
2.G\	0B-	1d	1r	2.b-\
4G\	.	.	.	4a/
2G\	.	2r	1d	1g
2G\	.	2d\	.	.
=15	=15	=15	=15	=15
1D	[0A	2d\	2f/	1a
.	.	2d\	2f/	.
2r	.	2.c\	1e	2r
2AA/	.	.	.	2e/
.	.	4B-\	.	.
=16	=16	=16	=16	=16
2.D\	0A_	2A/	2r	1.f
.	.	2d\	2d/	.
4D\	.	.	.	.
2D\	.	2d\	2.a/	.
2D\	.	2d\	.	2f/
.	.	.	4a/	.
=17	=17	=17	=17	=17
1AA	0A]	2.c\	2a/	1e
.	.	.	2a/	.
.	.	4B-\	.	.
1AA	.	2A/	1e	1a
.	.	[2c\	.	.
=18	=18	=18	=18	=18
2.C/	0r	2c\]	1e	1g
.	.	4B-\	.	.
4C/	.	4A/	.	.
2C/	.	1G	2.g/	2r
2C/	.	.	.	2g/
.	.	.	4g/	.
=19	=19	=19	=19	=19
0GG	0r	2r	2g/	1.b-
.	.	1G	2g/	.
.	.	.	1d	.
.	.	4F/	.	4a/
.	.	4E/	.	4g/
=20	=20	=20	=20	=20
1r	0A	1D	2r	2.f/
.	.	.	2d/	.
.	.	.	.	4g/
1D	.	1d	[1f	[1a
=21	=21	=21	=21	=21
1.F	1.A	2.c\	2f/]	0a_
.	.	.	2e/	.
.	.	4B-\	.	.
.	.	2.A/	2d/	.
2E\	2A\	.	2c/	.
.	.	4G/	.	.
=22	=22	=22	=22	=22
2D\	1A	2.F/	1.f	1a]
2D\	.	.	.	.
.	.	4E/	.	.
[1F	1A	1D	.	2r
.	.	.	4e/	2f/
.	.	.	4d/	.
=23	=23	=23	=23	=23
2F\]	0A	1r	2c/	2cc\
4E\	.	.	2f/	2f/
4D\	.	.	.	.
2C/	.	2r	2e/	2.cc\
2D\	.	2D/	[2d/	.
.	.	.	.	4b-\
=24	=24	=24	=24	=24
1AA	1r	2E/	2d/]	2a/
.	.	2C/	2c/	2g/
2r	1A	2D/	2.f/	1f
2FF/	.	[2F/	.	.
.	.	.	4g/	.
=25	=25	=25	=25	=25
2.FF/	0A	2F/]	1a	1f
.	.	4E/	.	.
4GG/	.	4D/	.	.
2.AA/	.	2.C/	2r	[1e
.	.	.	2cc\	.
4BB-/	.	4D/	.	.
=26	=26	=26	=26	=26
1C	1G	1E	4cc\	1e]
.	.	.	4b-\	.
.	.	.	4a/	.
.	.	.	4g/	.
1D	1F	2r	4b-\	1r
.	.	.	4a/	.
.	.	2A/	4g/	.
.	.	.	4f/	.
=27	=27	=27	=27	=27
2C/	0G	2c\	2e/	1r
2BB-/	.	2d\	1f	.
1C	.	1c	.	1g
.	.	.	2e/	.
=28	=28	=28	=28	=28
1FF	0F	2.c\	1f	1a
.	.	4B-\	.	.
1r	.	4A/	2r	1f
.	.	4G/	.	.
.	.	[2F/	2a/	.
=29	=29	=29	=29	=29
1C	0r	2F/]	2a/	1.cc
.	.	2E/	2g/	.
[1F	.	1F	[1a	.
.	.	.	.	2b-\
=30	=30	=30	=30	=30
2F\]	0F	1c	1a]	2a/
2E\	.	.	.	2g/
2.D\	.	[1d	1a	2.f/
4C/	.	.	.	4e/
=31	=31	=31	=31	=31
2BB-/	1G	1d]	0b-	4d/
.	.	.	.	4c/
2AA/	.	.	.	1f
1GG	1G	1B-	.	.
.	.	.	.	2e/
=32	=32	=32	=32	=32
2FF/	0A	2.c\	[0a	2f/
2C/	.	.	.	2e/
.	.	4B-\	.	.
2.F\	.	2A/	.	2c/
.	.	2G/	.	2c/
4E\	.	.	.	.
=33	=33	=33	=33	=33
2D\	1A	2F/	1a]	2d/
2C/	.	2E/	.	2e/
2BB-/	[1B-	4D/	1r	1f
.	.	4C/	.	.
2AA/	.	[2F/	.	.
=34	=34	=34	=34	=34
1GG	1B-]	2F/]	0r	1g
.	.	2E/	.	.
1FF	1A	1F	.	1a
=35	=35	=35	=35	=35
1r	1G	0r	1r	1d
[1C	[1G	.	1g	2.g/
.	.	.	.	4f/
=36	=36	=36	=36	=36
1C]	1G]	0r	1.cc	2e/
.	.	.	.	2d/
[1F	[1A	.	.	1c
.	.	.	2b-\	.
=37	=37	=37	=37	=37
2F\]	1A]	0F	2a/	1cc
2E\	.	.	2g/	.
2D\	1r	.	2f/	2b-\
2C/	.	.	2e/	2a/
=38	=38	=38	=38	=38
2BB-/	0r	1G	4d/	2g/
.	.	.	4c/	.
2AA/	.	.	1f	2f/
2GG/	.	1G	.	2b-\
2GG/	.	.	2e/	2b-\
=39	=39	=39	=39	=39
1FF	1r	1A	1f	1a
1r	1A	1D	2r	1f
.	.	.	2f/	.
=40	=40	=40	=40	=40
1r	1.A	2F/	2f/	1cc
.	.	2C/	2e/	.
1D	.	2.F/	2d/	1r
.	2A\	.	2d/	.
.	.	4G/	.	.
=41	=41	=41	=41	=41
1F	1A	2A/	1c	1r
.	.	2F/	.	.
2D\	1A	2.f\	1r	2r
[2F\	.	.	.	[2a/
.	.	4e\	.	.
=42	=42	=42	=42	=42
2F\]	1G	4d\	1r	4a/]
.	.	4c\	.	4b-\
2E\	.	1c	.	2cc\
1D	1F	.	2r	1dd
.	.	2Bni\	2d/	.
=43	=43	=43	=43	=43
2.C/	1.G	2c\	2e/	2.g/
.	.	2.G/	2c/	.
8BB-/L	.	.	.	4a/
8AA/J	.	.	.	.
2.GG/	.	.	[1d	2.b-\
.	.	4A/	.	.
.	4F\	[2B-\	.	.
4AA/	4E\	.	.	4a/
=44	=44	=44	=44	=44
2BB-/	2D\	2B-\]	2d/]	2.f/
2AA/	2C/	2c\	2e/	.
.	.	.	.	4g/
2.FF/	4F\	[1c	1f	[1a
.	4G\	.	.	.
.	4A\	.	.	.
4GG/	4B-\	.	.	.
=45	=45	=45	=45	=45
2.AA/	2.c\	1c]	2e/	1a]
.	.	.	4c/	.
4BB-/	4B-\	.	4d/	.
2C/	4A\	2r	4e/	1r
.	4G\	.	4f/	.
2BB-/	[2B-\	2d\	[2g/	.
=46	=46	=46	=46	=46
1D	4B-\]	2d\	4g/]	1r
.	4A\	.	4f/	.
.	4G\	2B-\	1f	.
.	4F\	.	.	.
1C	1G	1c	.	1g
.	.	.	2e/	.
=47	=47	=47	=47	=47
1r	[0Fl	1c	[0fl	2a/
.	.	.	.	2f/
1FF	.	2.A/	.	2.cc\
.	.	4B-\	.	4b-\
=48	=48	=48	=48	=48
2FF/	0F_	4c\	0f_	2.a/
.	.	4A/	.	.
2FF/	.	1d	.	.
.	.	.	.	4g/
1BB-	.	.	.	2f/
.	.	2c\	.	2e/
=49	=49	=49	=49	=49
1BB-	0F]	1B-	0f]	1d
1FFl	.	1Al	.	1cl
==	==	==	==	==
*-	*-	*-	*-	*-
!!!RDF**kern: l=long note in original notation
!!!RDF**kern: i=editorial accidental
!!!ENC: Will Watson 22/08/2011
!!!END: 2011/08/22/
!!!EED: Jesse Rodin
!!!EEV: 2011/10/07/
!!attribution-level@Jos: 4 (questionable)
!!!ONB: Translated from MusicXML and edited on 2011/10/07/ by Craig Sapp
!!muse2ps:  C^@{COA}?\n@{SCT}^i2I100v90,90,90,90,90,130Q16
